!!!ONB: MCCC : IFS0589_04 : Extracted Monophonic Melody
!!!COM: Schubert, Franz
!!!OPR: Piano Sonata in A minor
!!!OMV: 4
!!!SCT: D.845 (published as Op.42)
!!!ODT: 1825///
**kern
*staff1
*clefG2
*k[]
*C:
*M2/4
8ee
8ff
=2
8ee
8e
8dd
8e
=3
8cc
8e
8b
8e
=4
8b
8a
8e
8a
=5
8cc
8b
8e
8cc
=6
8g#
8a
8e
8a
=7
8cc
8b
8e
8b
=8
8dd
8cc
8b
8cc
=9
8dd
8g
8ee-
8g
=10
8ee
8g
8ff
8g
=11
8gg
8g
8aa
8b
=12
8gg
8cc
8ff
8b
=13
8ee
8cc
8dd
8a
=14
8cc
8a
8dd
8a
=15
8ee
8e
8ee
8ff
=16
8ff
8ee
8ee
8dd
=17
8dd
8cc
8cc
8b
=18
8b
8a
8e
8a
=19
8cc
8b
8e
8b
=20
8g#
8a
8e
8a
=21
8cc
8b
8e
8b
=22
8dd
8cc
8b
8cc
=23
8dd
8g
8ee-
8g
=24
8ee
8g
8ff#
8b
=25
8gg
8ff#
8b
8ff#
=26
8gg
8b
8aa
8b
=27
8bb
8b
8eee
8ff#
=28
8ddd
8gg
8ccc
8ff#
=29
8bb
8gg
8aa
8b
=30
8gg
8cc
8ff
8b
=31
8ee
8cc
8dd
8a
=32
8cc
8a
8dd
8a
=33
8ee
8e
8ee
8ff
=34
8ee
8ff
8dd
8ee
=35
8cc
8dd
8b
8cc
=36
8b
8a
8e
8a
=37
8cc
8b
8e
8b
=38
8g#
8a
8e
8a
=39
8cc
8b
8e
8b
=40
8b
8a
8e
8a
=41
8cc
8b
8e
8b
=42
8g#
8a
8e
8a
=43
8cc
8b
8e
8b
=44
8a
8e
8g#
8b
=45
8a
8e
8g#
8ee
=46
8a
8e
8g#
8b
=47
4a
8r
16r
32c
32d
=48
4c
8B
8A
=49
4G
4ee
=50
2gg
=51
4ee
4r
=52
4aa
8aa
8aa
=53
8aa
8ccc
8bb
8aa
=54
4ee
4aaa
=55
4.eee
16eee
32eee[
32eee]
=56
4f
8e
8d
=57
4c
4aa
=58
2ccc
=59
4aa
4r
=60
4ddd
8ddd
8ddd
=61
8ddd
8fff
8eee
8ddd
=62
4aa
8aa
8aa
=63
8aa
8ccc
8bb
8aa
=64
4ee
4ggg#
=65
2aaa
=66
4aa
8aa
8aa
=67
4aa
8aa
8aa
=68
4aa
8aa
8aa
=69
8aa
8ccc
8bb-
8aa
=70
4gg
4aa
=71
2gg
=72
4ff
8ff
8ff
=73
4ff
8ff
8ff
=74
4ff
8ff
8ff
=75
8ff
8aa
8gg
8ff
=76
4ee
4ff
=77
2ee
=78
4ccc
8ccc
8ccc
=79
4ccc
8ccc
8ccc
=80
4ccc
8ccc
8ccc
=81
8ccc
8eee
8ddd
8ccc
=82
4bb
4ccc
=83
4bb
4ccc
=84
8b
8e
8cc
8e
=85
8b
8e
8cc
8e
=86
4bb
4ccc
=87
4bb
4ccc
=88
8b
8e
8cc
8e
=89
8b
8e
8cc
8e
=90
8b
8cc
8cc
8dd
=91
8dd
8ee
8ee
8ff
=92
8ee
8e
8dd
8e
=93
8cc
8e
8b
8e
=94
8b
8a
8e
8a
=95
8cc
8b
8e
8cc
=96
8g#
8a
8e
8a
=97
8cc
8b
8e
8b
=98
8dd
8cc
8b
8cc
=99
8dd
8g
8ee-
8g
=100
8ee
8g
8ff
8g
=101
8gg
8g
8aa
8b
=102
8gg
8cc
8ff
8b
=103
8ee
8cc
8dd
8a
=104
8cc
8a
8dd
8a
=105
8ee
8e
8ee
8ff
=106
8ff
8ee
8ee
8dd
=107
8dd
8cc
8cc
8b
=108
8b
8a
8g#
8a
=109
8cc
8b
8a
8b
=110
8dd
8cc
8b
8cc
=111
8ee
8dd#
8cc#
8ee-
=112
8ff#
8ee
8dd#
8ee
=113
8gg
8ff#
8ee
8ff#
=114
8ee-
8bb
8ee
8ccc
=115
8ee
8gg
8ee-
8ff#
=116
4ee
4eee
=117
4ddd
4ccc
=118
4bb
4gg
=119
4ff#
4ee
=120
4dd
4bb
=121
4aa
4gg
=122
4ff#
4aa
=123
4gg
4ff#
=124
4ee
8ee
8ee
=125
8ee
8gg
8ff#
8ee
=126
4bb
4ccc
=127
2bb
=128
8bb
8ccc
8aa
8bb
=129
8gg
8aa
8ff#
8gg
=130
8ff#
8ee
8b
8ee
=131
8gg
8ff#
8b
8ff#
=132
8dd#
8ee
8b
8ee
=133
8gg
8ff#
8b
8ff#
=134
4ee
8ee
8ee
=135
8ee
8gg
8ff#
8ee
=136
4bb
4eee
=137
2bb
=138
8bb
8ccc#
8aa
8bb
=139
8gg#
8aa
8ff#
8gg#
=140
8ff#
8ee
8b
8ee
=141
8gg#
8ff#
8b
8ff#
=142
8dd#
8ee
8b
8ee
=143
8gg#
8ff#
8b
8ff#
=144
20e
20f#
20e
20f#
20e
8d#
8c#
=145
8B
8ee
8b
8gg#
=146
8cc#
8ff#
8cc#
8ccc#
=147
8gg#
8bb
8ff#
8fff#
=148
20e
20f#
20e
20f#
20e
8d#
8c#
=149
8B
8ee
8b
8gg#
=150
8cc#
8ff#
8cc#
8ccc#
=151
8gg#
8bb
8ff#
8fff#
=152
20e
20f#
20e
20f#
20e
8d#
8c#
=153
8c
8eee-
8gg#
8ggg#
=154
20e
20f#
20e
20f#
20e
8d#
8c#
=155
8c
8eee-
8gg#
8ggg#
=156
8r
8ee-
8g#
8gg#
=157
8g#
8gg#
8g#
8gg#
=158
8g#
8gg#
8g#
8gg#
=159
20ee-
20ff
20ee-
20ff
20ee-
8cc#
8cc
=160
8b-
8ff
8b-
8bb-
=161
20ff#
20gg#
20ff#
20gg#
20ff#
8ff
8ee-
=162
8b-
8ff
8b-
8bb-
=163
8b-
8ff
8b-
8bb-
=164
8b-
8ff
8b-
8bb-
=165
8cc#
8gg#
8cc#
8ccc#
=166
8cc#
8gg#
8cc#
8ccc#
=167
20bb
20ccc#
20bb
20ccc#
20bb
8aa
8gg#
=168
8ff#
8ccc#
8ff#
8fff#
=169
8bb
8fff#
8bb
8bbb
=170
20e
20f#
20e
20f#
20e
8d#
8c#
=171
4B
4r
=172
20e
20f#
20e
20f#
20e
8d#
8c#
=173
4B
4r
=174
20g#
20a
20g#
20a
20g#
8f#
8e
=175
4e-
4r
=176
20g#
20a
20g#
20a
20g#
8f#
8e
=177
4e-
4r
=178
8g#
8e
8a
8e
=179
8b
8e
8cc#
8e
=180
8ee-
8b
8ee
8b
=181
8ff#
8b
8gg
8b
=182
2gg
=183
2gg
=184
2gg
=185
2gg
=186
2bb
=187
2bb
=188
2bb
=189
2bb
=190
4bb
8aa
8gg#
=191
4gg#
4ff#
=192
8ee
8e
8ee
8ff
=193
8ee
8e
8ee
8ff
=194
8ee
8g#
8ee
8ff
=195
8ee
8b
8ee
8ff
=196
8ee
8dd
8ee
8ff
=197
8ee
8b
8ee
8ff
=198
8ee
8dd
8ee
8ff
=199
8ee
8b
8ee
8ff
=200
8ee
8dd
8ee
8ff
=201
8ee
8b
8ee
8ff
=202
8ee
8g#
8ee
8ff
=203
8ee
8g#
8ee
8ff
=204
8ee
8g#
8ee
8ff
=205
8ee
8g#
8ee
8ff
=206
8ee
8g#
8ee
8ff
=207
8ee
8g#
8ee
8ff
=208
8ee
8g#
8ee
8ff
=209
8ee
8g#
8ee
8ff
=210
8ee
8e
8dd
8e
=211
8cc
8e
8b
8e
=212
8b
8a
8e
8a
=213
8cc
8b
8e
8cc
=214
8g#
8a
8e
8a
=215
8cc
8b
8e
8b
=216
8dd
8cc
8b
8cc
=217
8dd
8g
8ee-
8g
=218
8ee
8g
8ff
8g
=219
8gg
8g
8aa
8b
=220
8gg
8cc
8ff
8b
=221
8ee
8cc
8dd
8a
=222
8cc
8a
8dd
8a
=223
8ee
8e
8ee
8ff
=224
8ff
8ee
8ee
8dd
=225
8dd
8cc
8cc
8b
=226
8b
8a
8e
8a
=227
8cc
8b
8e
8b
=228
8g#
8a
8e
8a
=229
8cc
8b
8e
8b
=230
8dd
8cc
8b
8cc
=231
8dd
8g
8ee-
8g
=232
8ee
8g
8ff#
8b
=233
8gg
8ff#
8b
8ff#
=234
8gg
8b
8aa
8b
=235
8bb
8b
8eee
8ff#
=236
8ddd
8gg
8ccc
8ff#
=237
8bb
8gg
8aa
8b
=238
8gg
8cc
8ff
8b
=239
8ee
8cc
8dd
8a
=240
8cc
8a
8dd
8a
=241
8ee
8e
8ee
8ff
=242
8ee
8ff
8dd
8ee
=243
8cc
8dd
8b
8cc
=244
8b
8a
8e
8a
=245
8cc
8b
8e
8b
=246
8g#
8a
8e
8a
=247
8cc#
8b
8e
8b
=248
8b
8a
8e
8a
=249
8cc
8b
8e
8b
=250
8g#
8a
8e
8a
=251
8cc#
8b
8e
8b
=252
8a
8e
8g#
8b
=253
8a
8e
8g#
8ee
=254
8a
8e
8g#
8b
=255
4a
4r
=256
2r
=257
2r
=258
4ccc#
4bb
=259
4aa
4gg#
=260
2aa
=261
2bb
=262
2ccc#
=263
4ddd
4bb
=264
2cc#
=265
2dd
=266
2ee
=267
4ff#
4dd
=268
8bb
8b
8aa
8b
=269
8gg#
8b
8ff#
8b
=270
8ee
8g#
8cc#
8ee
=271
8ff#
8a
8cc#
8ff#
=272
8gg#
8cc
8ee-
8gg#
=273
8aa
8cc#
8ff#
8a
=274
8ee
8gg#
8bb
8eee
=275
8ggg#
8bb
8bbb
8bb
=276
4b
4aa
=277
4ff#
4dd#
=278
8ee
8gg#
8bb
8eee
=279
8ggg#
8bb
8bbb
8bb
=280
4b
4aa
=281
4ff#
4dd#
=282
4ee
4r
=283
2r
=284
4ccc#
4bb
=285
4aa
4gg#
=286
2aa
=287
2bb
=288
2ccc#
=289
4ddd
4bb
=290
8a
8ff#
8dd
8a
=291
8a
8ee
8cc
8a
=292
8a
8ee-
8cc
8a
=293
8b
8ee
8g
8ee
=294
2gg
=295
2aa
=296
2bb
=297
4ccc
4aa
=298
8eee
8ee
8ddd
8ee
=299
8ccc#
8ee
8bb
8ee
=300
8aa
8a
8ff#
8aa
=301
8bb
8dd
8ff#
8bb
=302
8ccc#
8ff
8gg#
8ccc#
=303
8ddd
8ff#
8bb
8b
=304
8aa
8ccc#
8eee
8aaa
=305
4cccc#
4eeee
=306
4ee
4ddd
=307
4bb
4gg#
=308
8aa
8ccc#
8eee
8aaa
=309
4cccc#
4eeee
=310
4ee
4ddd
=311
4bb
4gg#
=312
8aa
8bb
8gg#
8bb
=313
8aa
8bb
8gg#
8bb
=314
8aa
8bb-
8gg
8aa
=315
8ff
8gg
8ee
8ff
=316
8bb-
8aa
8aa
8gg
=317
8gg
8ff
8ff
8ee
=318
8ee
8dd
8a
8dd
=319
8ff
8ee
8a
8cc#
=320
8ee
8dd
8a
8dd
=321
8ff
8ee
8a
8cc#
=322
8dd
8a
8ee
8a
=323
8ff
8a
8gg#
8dd
=324
2aa
=325
2bb
=326
2ccc
=327
4ddd
4bb
=328
2ccc
=329
4ddd
4bb
=330
4ccc
4gg#
=331
4aa
4ff
=332
8ee
8fff
8fff
8eee
=333
8eee
8ddd
8ddd
8ccc
=334
8ccc
8bb
8ee
8bb
=335
8ddd
8ccc
8aa
8aaa
=336
2ee
=337
2ff#
=338
2gg#
=339
4aa
4ff
=340
4ee
4ee
=341
4ee-
4aaa
=342
4ggg#
4ee
=343
4ee-
4aaa
=344
8ggg#
8ee
8eee
8fff
=345
8eee
8ee
8eee
8fff
=346
8eee
8fff
8ddd
8eee
=347
8ccc
8ddd
8bb
8ccc
=348
8bb
8aa
8ee
8aa
=349
8ccc
8bb
8ee
8gg#
=350
8bb
8aa
8ee
8aa
=351
8ccc
8bb
8ee
8bb
=352
8gg#
8aa
8ee
8aa
=353
8ccc#
8bb
8ee
8bb
=354
8gg#
8aa
8ee
8aa
=355
8ccc#
8bb
8ee
8gg#
=356
8aa
8ee
8gg#
8bb
=357
8aa
8ee
8gg#
8eee
=358
8aa
8ee
8gg#
8bb
=359
4aa
8r
16r
32c
32d
=360
4c
8B
8A
=361
4G
4ee
=362
2gg
=363
4ee
4r
=364
4aa
8aa
8aa
=365
8aa
8ccc
8bb
8aa
=366
4ee
4aaa
=367
4.eee
16eee
32eee[
32eee]
=368
4f
8e
8d
=369
4c
4aa
=370
2ccc
=371
4aa
4r
=372
4ddd
8ddd
8ddd
=373
8ddd
8fff
8eee
8ddd
=374
4aa
8aa
8aa
=375
8aa
8ccc
8bb
8aa
=376
4ee
4ggg#
=377
2aaa
=378
4aa
8aa
8aa
=379
4aa
8aa
8aa
=380
4aa
8aa
8aa
=381
8aa
8ccc
8bb-
8aa
=382
4gg
4aa
=383
2gg
=384
4ff
8ff
8ff
=385
4ff
8ff
8ff
=386
4ff
8ff
8ff
=387
8ff
8aa
8gg
8ff
=388
4ee
4ff
=389
4ee
4ff
=390
8e
8A
8f
8A
=391
8e
8A
8f
8A
=392
4ee
4ff
=393
4ee
4ff
=394
8e
8A
8f
8A
=395
8e
8A
8f
8A
=396
8e
8f
8f
8g
=397
8g
8a
8a
8b-
=398
8a
8A
8g
8A
=399
8f
8A
8e
8A
=400
8e
8d
8A
8d
=401
8f
8e
8A
8e
=402
8c#
8d
8A
8d
=403
8f
8e
8A
8e
=404
8g
8f
8e
8f
=405
8g
8c
8g#
8c
=406
8a
8c
8b-
8c
=407
8cc
8c
8dd
8e
=408
8cc
8f
8b-
8e
=409
8a
8f
8g
8d
=410
8f
8d
8g
8d
=411
8a
8A
8a
8b-
=412
8b-
8a
8a
8g
=413
8g
8f
8f
8e
=414
8e
8d
8c#
8d
=415
2g
=416
4a
4r
=417
2b
=418
4cc
4r
=419
2dd
=420
8g#
8ee
8a
8ff
=421
8a
8cc
8g#
8b
=422
4a
4aaa
=423
4ggg
4fff
=424
4eee
4ccc
=425
4bb
4aa
=426
4gg
4eee
=427
4ddd
4ccc
=428
4bb
4ddd
=429
4ccc
4bb
=430
4aa
8a
8a
=431
8a
8cc
8b
8a
=432
4ee
4ff
=433
2ee
=434
8eee
8fff
8ddd
8eee
=435
8ccc
8ddd
8bb
8ccc
=436
8bb
8aa
8ee
8aa
=437
8ccc
8bb
8ee
8bb
=438
8gg#
8aa
8ee
8aa
=439
8ccc
8bb
8ee
8bb
=440
4aa
8a
8a
=441
8a
8cc
8b
8a
=442
4ee
4aa
=443
2ee
=444
8eee
8fff#
8ddd
8eee
=445
8ccc#
8ddd
8bb
8ccc#
=446
8bb
8aa
8ee
8aa
=447
8ccc#
8bb
8ee
8bb
=448
8gg#
8aa
8ee
8aa
=449
8ccc#
8bb
8ee
8bb
=450
20A
20B
20A
20B
20A
8G#
8F#
=451
8E
8a
8e
8cc#
=452
8f#
8b
8f#
8ff#
=453
8cc#
8ee
8b
8bb
=454
20A
20B
20A
20B
20A
8G#
8F#
=455
8E
8a
8e
8cc#
=456
8f#
8b
8f#
8ff#
=457
8cc#
8ee
8b
8bb
=458
20A
20B
20A
20B
20A
8G#
8F#
=459
8F
8gg#
8cc#
8ccc#
=460
20A
20B
20A
20B
20A
8G#
8F#
=461
8F
8gg#
8cc#
8ccc#
=462
2r
=463
8r
8g#
8c#
8cc#
=464
8c#
8cc#
8c#
8cc#
=465
8c#
8cc#
8c#
8cc#
=466
20g#
20b-
20g#
20b-
20g#
8f#
8f
=467
8e-
8b-
8e-
8ee-
=468
20b
20cc#
20b
20cc#
20b
8a#
8g#
=469
8f#
8cc#
8f#
8ff#
=470
8f#
8cc#
8f#
8ff#
=471
8f#
8cc#
8f#
8ff#
=472
8f#
8cc#
8f#
8ff#
=473
8f#
8cc#
8f#
8ff#
=474
20ee
20ff#
20ee
20ff#
20ee
8dd
8cc#
=475
8b
8ff#
8b
8bb
=476
8ee
8bb
8ee
8eee
=477
20a
20b
20a
20b
20a
8g#
8f#
=478
4e
4r
=479
20a
20b
20a
20b
20a
8g#
8f#
=480
4e
4r
=481
20cc#
20dd
20cc#
20dd
20cc#
8b
8a
=482
4g#
4r
=483
20cc#
20dd
20cc#
20dd
20cc#
8b
8a
=484
4g#
4r
=485
8cc#
8a
8dd
8a
=486
8ee
8a
8ff#
8a
=487
8gg#
8ee
8aa
8ee
=488
8bb
8ee
8ccc
8ee
=489
2ccc
=490
2ccc
=491
2ccc
=492
2ccc
=493
2eee
=494
2eee
=495
2eee
=496
2eee
=497
4eee
8ddd
8ccc#
=498
4ccc#
4bb
=499
8aa
8a
8aa
8bb
=500
8aa
8a
8aa
8bb
=501
8aa
8a
8aa
8bb-
=502
8aa
8bb-
8aa
8bb-
=503
16aa
16bb-
16gg
16aa
16ff
16gg
16ee
16ff
=504
16ee
16dd
16a
16dd
16ff
16ee
16a
16cc#
=505
16ee
16dd
16a
16dd
16ff
16ee
16a
16cc#
=506
16dd
16a
16ee
16cc#
16ff
16dd
16gg
16ee
=507
4ccc
8ccc
8ccc
=508
4ccc
8ccc
8ccc
=509
8aa
8gg
8ff
8ee
=510
16bb
16aa
16ee
16aa
16ccc
16bb
16ee
16gg#
=511
16bb
16aa
16ee
16aa
16ccc
16bb
16ee
16gg#
=512
4eee
8eee
8eee
=513
4eee
8eee
8eee
=514
8eee
8ggg#
8aaa
8ggg#
=515
8aaa
8bbb
8cccc
8bbb
=516
16cccc
16dddd
16bbb
16cccc
16aaa
16eee
16ccc
16aa
=517
16aaa
16bbb
16fff
16aaa
16eee
16ccc
16aa
16ee
=518
16eee
16fff
16ddd
16eee
16ccc
16aa
16ee
16cc
=519
16ccc
16ddd
16bb
16ccc
16aa
16ee
16cc
16a
=520
16aa
16bb
16ff
16aa
16ee
16cc
16a
16e
=521
16ee
16ff
16dd
16ee
16cc
16a
16e
16c
=522
16cc
16dd
16b
16cc
16a
16e
16c
16A
=523
16a
16e
16c
16A
16a
16e
16c
16A
=524
4a
4r
=525
4ee
4r
=526
4aa
4r
==
*-
